;FLAVOR:Marlin
;TIME:12066
;Filament used: 10.2782m
;Layer height: 0.2
;MINX:48.679
;MINY:48.678
;MINZ:0.2
;MAXX:171.322
;MAXY:171.323
;MAXZ:15
;Generated with Cura_SteamEngine 5.4.0
M82 ;absolute extrusion mode
; Ender 3 S1 Pro Start G-code
; M413 S0 ; Disable power loss recovery
G92 E0 ; Reset Extruder

; Prep surfaces before auto home for better accuracy
M140 S60
M104 S200

G28 O ; Home all untrusted axes
G1 Z10.0 F3000 ; Move Z Axis up little to prevent scratching of Heat Bed
G1 X0 Y0

M190 S60
M109 S200

G1 X0.1 Y20 Z0.3 F5000.0 ; Move to start position
G1 X0.1 Y200.0 Z0.3 F1500.0 E15 ; Draw the first line
G1 X0.4 Y200.0 Z0.3 F5000.0 ; Move to side a little
G1 X0.4 Y20 Z0.3 F1500.0 E30 ; Draw the second line
G92 E0 ; Reset Extruder
G1 Z2.0 F3000 ; Move Z Axis up little to prevent scratching of Heat Bed
G1 X5 Y20 Z0.3 F5000.0 ; Move over to prevent blob squish

G92 E0
G92 E0
G1 F2400 E-0.8
;LAYER_COUNT:75
;LAYER:0
M107
M204 S2000
G0 F7500 X66.563 Y66.707 Z0.2
M204 S500
;TYPE:SKIRT
G1 F2400 E0
G1 F1500 X67.346 Y65.941 E0.03643
G1 X68.459 Y64.89 E0.08735
G1 X69.391 Y64.041 E0.12928
G1 X70.743 Y62.886 E0.18842
G1 X71.582 Y62.195 E0.22457
G1 X72.529 Y61.459 E0.26446
G1 X73.601 Y60.648 E0.30917
G1 X74.586 Y59.929 E0.34973
G1 X75.175 Y59.522 E0.37355
G1 X76.448 Y58.669 E0.42451
G1 X77.5 Y57.992 E0.46612
G1 X79.181 Y56.985 E0.5313
G1 X80.309 Y56.34 E0.57451
G1 X81.084 Y55.92 E0.60383
G1 X82.323 Y55.274 E0.65031
G1 X83.3 Y54.788 E0.6866
G1 X85.36 Y53.843 E0.76198
G1 X86.07 Y53.535 E0.78772
G1 X87.116 Y53.107 E0.82531
G1 X89.214 Y52.305 E0.90002
G1 X90.818 Y51.752 E0.95645
G1 X92.262 Y51.292 E1.00685
G1 X92.701 Y51.161 E1.02209
G1 X94.71 Y50.614 E1.09134
G1 X95.877 Y50.321 E1.13136
G1 X96.639 Y50.15 E1.15734
G1 X98.092 Y49.843 E1.20673
G1 X99.225 Y49.625 E1.24511
G1 X101.488 Y49.269 E1.3213
G1 X102.728 Y49.106 E1.3629
G1 X104.975 Y48.884 E1.438
G1 X106.16 Y48.795 E1.47752
G1 X108.413 Y48.699 E1.55252
G1 X109.42 Y48.678 E1.58602
G1 X110.273 Y48.68 E1.61439
G1 X111.662 Y48.702 E1.6606
G1 X113.01 Y48.75 E1.70546
G1 X115.053 Y48.886 E1.77356
G1 X116.073 Y48.974 E1.80761
G1 X116.83 Y49.059 E1.83295
G1 X118.45 Y49.262 E1.88725
G1 X119.446 Y49.405 E1.92072
G1 X120.226 Y49.535 E1.94702
G1 X121.772 Y49.817 E1.99929
G1 X122.776 Y50.017 E2.03334
G1 X123.522 Y50.184 E2.05876
G1 X125.215 Y50.592 E2.11669
G1 X126.318 Y50.88 E2.1546
G1 X128.09 Y51.404 E2.21606
G1 X129.619 Y51.888 E2.2694
G1 X130.612 Y52.232 E2.30436
G1 X131.54 Y52.573 E2.33724
G1 X133.35 Y53.298 E2.40209
G1 X134.509 Y53.788 E2.44394
G1 X135.373 Y54.168 E2.47534
G1 X136.162 Y54.536 E2.50429
G1 X137.817 Y55.345 E2.56556
G1 X138.864 Y55.885 E2.60474
G1 X140.379 Y56.724 E2.66234
G1 X142.532 Y58.021 E2.74594
G1 X144.054 Y58.996 E2.80606
G1 X144.94 Y59.602 E2.84176
G1 X146.831 Y60.966 E2.91931
G1 X147.912 Y61.803 E2.96478
G1 X148.987 Y62.663 E3.01057
G1 X149.522 Y63.105 E3.03365
G1 X150.247 Y63.735 E3.0656
G1 X151.636 Y64.983 E3.12771
G1 X152.54 Y65.828 E3.16886
G1 X153.94 Y67.222 E3.23457
G1 X154.601 Y67.908 E3.26626
G1 X155.184 Y68.541 E3.29488
G1 X156.383 Y69.886 E3.35481
G1 X157.089 Y70.711 E3.39093
G1 X158.35 Y72.274 E3.45772
G1 X158.972 Y73.082 E3.49164
G1 X159.426 Y73.702 E3.5172
G1 X160.438 Y75.121 E3.57516
G1 X161.005 Y75.947 E3.60849
G1 X162.01 Y77.502 E3.67007
G1 X162.742 Y78.7 E3.71676
G1 X163.223 Y79.538 E3.7489
G1 X163.894 Y80.74 E3.79469
G1 X164.45 Y81.783 E3.834
G1 X165.448 Y83.811 E3.90917
G1 X166.123 Y85.263 E3.96243
G1 X166.488 Y86.104 E3.99292
G1 X167.083 Y87.577 E4.04576
G1 X167.548 Y88.811 E4.08962
G1 X168.316 Y91.006 E4.16697
G1 X168.971 Y93.178 E4.24242
G1 X169.283 Y94.295 E4.281
G1 X169.513 Y95.213 E4.31247
G1 X169.873 Y96.74 E4.36465
G1 X170.107 Y97.836 E4.40193
G1 X170.474 Y99.827 E4.46926
G1 X170.655 Y100.96 E4.50743
G1 X170.945 Y103.208 E4.58281
G1 X171.056 Y104.239 E4.6173
G1 X171.114 Y104.948 E4.64096
G1 X171.23 Y106.635 E4.69721
G1 X171.287 Y107.842 E4.7374
G1 X171.322 Y109.922 E4.80659
G1 X171.315 Y111.064 E4.84457
G1 X171.233 Y113.282 E4.91839
G1 X171.173 Y114.337 E4.95354
G1 X171.109 Y115.099 E4.97897
G1 X170.95 Y116.741 E5.03384
G1 X170.829 Y117.79 E5.06896
G1 X170.728 Y118.514 E5.09328
G1 X170.468 Y120.198 E5.14995
G1 X170.26 Y121.395 E5.19036
G1 X169.847 Y123.385 E5.25796
G1 X169.592 Y124.484 E5.29548
G1 X169.069 Y126.474 E5.36392
G1 X168.733 Y127.651 E5.40463
G1 X168.507 Y128.37 E5.42969
G1 X167.909 Y130.179 E5.49306
G1 X167.592 Y131.084 E5.52496
G1 X167.294 Y131.879 E5.5532
G1 X166.678 Y133.426 E5.60858
G1 X166.094 Y134.77 E5.65732
G1 X165.517 Y136.039 E5.70368
G1 X165.015 Y137.098 E5.74266
G1 X164.603 Y137.905 E5.7728
G1 X163.565 Y139.865 E5.84657
G1 X163.325 Y140.293 E5.86289
G1 X162.43 Y141.811 E5.9215
G1 X161.725 Y142.945 E5.96591
G1 X160.468 Y144.829 E6.04124
G1 X159.977 Y145.542 E6.07003
G1 X159.259 Y146.524 E6.11049
G1 X157.892 Y148.309 E6.18527
G1 X156.852 Y149.577 E6.23982
G1 X156.032 Y150.528 E6.28158
G1 X154.93 Y151.733 E6.33589
G1 X154.092 Y152.617 E6.37641
G1 X153.144 Y153.583 E6.42142
G1 X151.586 Y155.066 E6.49296
G1 X150.615 Y155.953 E6.53671
G1 X149.297 Y157.086 E6.59451
G1 X148.227 Y157.958 E6.64042
G1 X147.591 Y158.452 E6.66721
G1 X146.377 Y159.368 E6.71779
G1 X145.528 Y159.987 E6.75274
G1 X144.994 Y160.356 E6.77433
G1 X143.481 Y161.373 E6.83496
G1 X142.398 Y162.072 E6.87783
G1 X140.809 Y163.027 E6.93949
G1 X139.794 Y163.605 E6.97834
G1 X137.742 Y164.688 E7.05551
G1 X136.812 Y165.155 E7.09013
G1 X136.005 Y165.534 E7.11978
G1 X134.049 Y166.414 E7.19112
G1 X133.649 Y166.583 E7.20556
G1 X131.956 Y167.26 E7.26621
G1 X129.942 Y167.994 E7.3375
G1 X128.468 Y168.476 E7.38908
G1 X127.204 Y168.864 E7.43306
G1 X125.026 Y169.455 E7.50812
G1 X123.907 Y169.727 E7.54642
G1 X121.634 Y170.208 E7.62369
G1 X120.475 Y170.424 E7.66291
G1 X118.435 Y170.742 E7.73158
G1 X117.348 Y170.883 E7.76803
G1 X115.042 Y171.115 E7.84512
G1 X114.054 Y171.191 E7.87808
G1 X113.162 Y171.24 E7.90779
G1 X111.61 Y171.301 E7.95945
G1 X110.45 Y171.323 E7.99804
G1 X108.346 Y171.301 E8.06802
G1 X107.186 Y171.26 E8.10663
G1 X104.93 Y171.112 E8.18182
G1 X103.965 Y171.029 E8.21404
G1 X103.069 Y170.928 E8.24403
G1 X101.5 Y170.731 E8.29662
G1 X100.524 Y170.589 E8.32943
G1 X99.623 Y170.436 E8.35982
G1 X98.049 Y170.146 E8.41305
G1 X96.895 Y169.909 E8.45224
G1 X94.954 Y169.451 E8.51857
G1 X93.867 Y169.168 E8.55593
G1 X91.64 Y168.512 E8.63314
G1 X90.589 Y168.176 E8.66984
G1 X88.777 Y167.535 E8.73377
G1 X87.615 Y167.1 E8.77504
G1 X85.912 Y166.407 E8.83619
G1 X85.024 Y166.014 E8.86849
G1 X83.581 Y165.337 E8.9215
G1 X82.213 Y164.668 E8.97215
G1 X81.379 Y164.241 E9.00332
G1 X80.58 Y163.806 E9.03357
G1 X78.889 Y162.851 E9.09817
G1 X78.532 Y162.64 E9.11196
G1 X76.792 Y161.561 E9.18006
G1 X75.785 Y160.896 E9.22019
G1 X74.902 Y160.283 E9.25594
G1 X73.602 Y159.354 E9.30909
G1 X72.674 Y158.661 E9.34761
G1 X71.077 Y157.392 E9.41545
G1 X70.277 Y156.722 E9.45016
G1 X68.419 Y155.073 E9.53279
G1 X67.907 Y154.602 E9.55593
G1 X67.205 Y153.925 E9.58836
G1 X66.151 Y152.869 E9.63799
G1 X65.354 Y152.041 E9.67621
G1 X63.749 Y150.265 E9.75583
G1 X63.029 Y149.428 E9.79255
G1 X61.788 Y147.892 E9.85823
G1 X60.753 Y146.543 E9.91478
G1 X59.602 Y144.938 E9.98047
G1 X58.951 Y143.985 E10.01886
G1 X57.877 Y142.3 E10.08532
G1 X56.736 Y140.4 E10.15903
G1 X56.231 Y139.498 E10.19341
G1 X55.577 Y138.274 E10.23957
G1 X54.553 Y136.196 E10.31662
G1 X54.095 Y135.208 E10.35284
G1 X53.235 Y133.193 E10.42571
G1 X52.555 Y131.494 E10.48658
G1 X52.221 Y130.579 E10.51897
G1 X51.819 Y129.408 E10.56015
G1 X51.322 Y127.822 E10.61543
G1 X51.008 Y126.769 E10.65198
G1 X50.705 Y125.662 E10.69015
G1 X50.175 Y123.48 E10.76484
G1 X49.961 Y122.514 E10.79774
G1 X49.823 Y121.812 E10.82154
G1 X49.513 Y120.098 E10.87947
G1 X49.337 Y118.996 E10.91659
G1 X49.045 Y116.717 E10.99301
G1 X48.932 Y115.613 E11.02992
G1 X48.768 Y113.31 E11.10671
G1 X48.728 Y112.571 E11.13133
G1 X48.697 Y111.461 E11.16826
G1 X48.679 Y109.926 E11.21932
G1 X48.684 Y108.885 E11.25394
G1 X48.704 Y108.194 E11.27694
G1 X48.78 Y106.495 E11.3335
G1 X48.856 Y105.303 E11.37323
G1 X49.047 Y103.272 E11.44108
G1 X49.178 Y102.148 E11.47871
G1 X49.517 Y99.883 E11.55489
G1 X49.706 Y98.792 E11.59171
G1 X50.176 Y96.516 E11.66901
G1 X50.421 Y95.458 E11.70513
G1 X51.025 Y93.185 E11.78336
G1 X51.355 Y92.051 E11.82264
G1 X51.869 Y90.463 E11.87815
G1 X52.37 Y89.033 E11.92855
G1 X53.167 Y86.966 E12.00223
G1 X53.642 Y85.82 E12.04349
G1 X54.49 Y83.937 E12.11218
G1 X54.98 Y82.903 E12.15024
G1 X55.368 Y82.14 E12.17871
G1 X56.196 Y80.57 E12.23774
G1 X57.12 Y78.95 E12.29977
G1 X57.646 Y78.074 E12.33376
G1 X58.537 Y76.645 E12.38977
G1 X59.454 Y75.272 E12.44468
G1 X60.222 Y74.177 E12.48917
G1 X61.563 Y72.392 E12.56342
G1 X62.428 Y71.298 E12.60981
G1 X63.668 Y69.821 E12.67395
G1 X64.445 Y68.941 E12.713
G1 X66.03 Y67.254 E12.78999
G1 X66.563 Y66.707 E12.81539
M204 S2000
G0 F7500 X66.843 Y66.993
M204 S500
G1 F1500 X67.621 Y66.232 E12.85159
G1 X68.728 Y65.186 E12.90224
G1 X69.651 Y64.345 E12.94377
G1 X70.997 Y63.195 E13.00266
G1 X71.828 Y62.511 E13.03845
G1 X72.77 Y61.778 E13.07815
G1 X73.837 Y60.971 E13.12265
G1 X74.813 Y60.258 E13.16285
G1 X75.398 Y59.854 E13.1865
G1 X76.665 Y59.005 E13.23722
G1 X77.705 Y58.335 E13.27837
G1 X79.38 Y57.332 E13.3433
G1 X80.499 Y56.692 E13.38618
G1 X81.269 Y56.275 E13.41531
G1 X82.501 Y55.632 E13.46153
G1 X83.467 Y55.152 E13.4974
G1 X85.52 Y54.21 E13.57253
G1 X86.221 Y53.905 E13.59796
G1 X87.259 Y53.481 E13.63525
G1 X89.344 Y52.683 E13.7095
G1 X90.939 Y52.133 E13.76562
G1 X92.376 Y51.675 E13.81578
G1 X92.806 Y51.547 E13.83071
G1 X94.807 Y51.002 E13.89968
G1 X95.965 Y50.711 E13.9394
G1 X96.721 Y50.541 E13.96517
G1 X98.168 Y50.236 E14.01435
G1 X99.29 Y50.02 E14.05236
G1 X100.1 Y49.886 E14.07966
G1 X101.54 Y49.666 E14.12811
G1 X102.767 Y49.504 E14.16928
G1 X105.005 Y49.283 E14.24408
G1 X106.177 Y49.195 E14.28317
G1 X108.421 Y49.099 E14.35787
G1 X109.419 Y49.078 E14.39107
G1 X110.267 Y49.08 E14.41928
G1 X111.648 Y49.102 E14.46522
G1 X112.983 Y49.149 E14.50964
G1 X115.019 Y49.285 E14.57751
G1 X116.029 Y49.372 E14.61123
G1 X116.78 Y49.456 E14.63636
G1 X118.393 Y49.658 E14.69043
G1 X119.38 Y49.8 E14.7236
G1 X120.154 Y49.929 E14.7497
G1 X121.694 Y50.209 E14.80176
G1 X122.688 Y50.407 E14.83547
G1 X123.428 Y50.573 E14.86069
G1 X125.114 Y50.979 E14.91837
G1 X126.205 Y51.264 E14.95588
G1 X127.969 Y51.785 E15.01705
G1 X129.488 Y52.266 E15.07005
G1 X130.474 Y52.607 E15.10475
G1 X131.391 Y52.944 E15.13724
G1 X133.194 Y53.667 E15.20185
G1 X134.348 Y54.154 E15.24351
G1 X135.204 Y54.53 E15.27461
G1 X135.986 Y54.895 E15.30331
G1 X137.634 Y55.701 E15.36433
G1 X138.67 Y56.235 E15.40309
G1 X140.178 Y57.07 E15.46042
G1 X140.522 Y57.27 E15.47366
G1 X142.316 Y58.358 E15.54344
G1 X143.828 Y59.326 E15.60316
G1 X144.706 Y59.926 E15.63853
G1 X146.586 Y61.282 E15.71562
G1 X147.667 Y62.119 E15.76109
G1 X148.732 Y62.971 E15.80646
G1 X149.26 Y63.407 E15.82923
G1 X149.98 Y64.032 E15.86094
G1 X151.363 Y65.275 E15.92279
G1 X152.258 Y66.112 E15.96355
G1 X153.652 Y67.499 E16.02895
G1 X154.307 Y68.179 E16.06035
G1 X154.885 Y68.807 E16.08874
G1 X156.079 Y70.146 E16.14841
G1 X156.778 Y70.962 E16.18415
G1 X158.033 Y72.518 E16.25064
G1 X158.649 Y73.318 E16.28422
G1 X159.1 Y73.934 E16.30961
G1 X160.108 Y75.347 E16.36734
G1 X160.669 Y76.164 E16.4003
G1 X161.669 Y77.711 E16.46157
G1 X162.395 Y78.899 E16.50788
G1 X162.874 Y79.733 E16.53987
G1 X163.541 Y80.928 E16.58539
G1 X164.091 Y81.96 E16.62428
G1 X165.085 Y83.98 E16.69916
G1 X165.756 Y85.422 E16.75206
G1 X166.117 Y86.254 E16.78222
G1 X166.709 Y87.718 E16.83475
G1 X167.17 Y88.943 E16.87828
G1 X167.933 Y91.122 E16.95507
G1 X168.586 Y93.286 E17.03025
G1 X168.895 Y94.392 E17.06844
G1 X169.124 Y95.305 E17.09975
G1 X169.482 Y96.824 E17.15166
G1 X169.714 Y97.908 E17.18853
G1 X170.079 Y99.89 E17.25556
G1 X170.258 Y101.011 E17.29331
G1 X170.547 Y103.251 E17.36843
G1 X170.657 Y104.272 E17.40259
G1 X170.715 Y104.975 E17.42605
G1 X170.83 Y106.654 E17.48203
G1 X170.887 Y107.849 E17.52182
G1 X170.922 Y109.92 E17.59071
G1 X170.915 Y111.049 E17.62826
G1 X170.834 Y113.259 E17.70181
G1 X170.774 Y114.304 E17.73663
G1 X170.711 Y115.061 E17.76189
G1 X170.553 Y116.695 E17.81649
G1 X170.433 Y117.735 E17.85131
G1 X170.333 Y118.453 E17.87542
G1 X170.074 Y120.129 E17.93183
G1 X169.868 Y121.314 E17.97183
G1 X169.457 Y123.295 E18.03913
G1 X169.205 Y124.382 E18.07624
G1 X168.684 Y126.364 E18.1444
G1 X168.351 Y127.531 E18.18476
G1 X168.127 Y128.245 E18.20965
G1 X167.532 Y130.047 E18.27277
G1 X167.218 Y130.943 E18.30435
G1 X166.922 Y131.731 E18.33235
G1 X166.311 Y133.267 E18.38733
G1 X165.73 Y134.605 E18.43584
G1 X165.156 Y135.868 E18.48199
G1 X164.659 Y136.916 E18.52056
G1 X164.25 Y137.718 E18.55051
G1 X163.216 Y139.67 E18.62398
G1 X162.981 Y140.09 E18.63998
G1 X162.09 Y141.6 E18.6983
G1 X161.392 Y142.723 E18.74228
G1 X160.139 Y144.602 E18.81739
G1 X159.654 Y145.306 E18.84583
G1 X158.941 Y146.281 E18.886
G1 X157.583 Y148.055 E18.96031
G1 X156.549 Y149.316 E19.01455
G1 X155.737 Y150.258 E19.05591
G1 X154.64 Y151.458 E19.10999
G1 X153.807 Y152.337 E19.15026
G1 X152.868 Y153.293 E19.19483
G1 X151.316 Y154.771 E19.26612
G1 X150.354 Y155.65 E19.30946
G1 X149.044 Y156.776 E19.36691
G1 X147.982 Y157.642 E19.41249
G1 X147.35 Y158.133 E19.43911
G1 X146.141 Y159.045 E19.48948
G1 X145.3 Y159.658 E19.52409
G1 X144.771 Y160.024 E19.54549
G1 X143.264 Y161.037 E19.60588
G1 X142.192 Y161.729 E19.64832
G1 X140.611 Y162.679 E19.70967
G1 X139.607 Y163.251 E19.7481
G1 X137.562 Y164.331 E19.82502
G1 X136.642 Y164.793 E19.85926
G1 X135.841 Y165.169 E19.88869
G1 X133.893 Y166.046 E19.95974
G1 X133.501 Y166.212 E19.9739
G1 X131.819 Y166.884 E20.03415
G1 X129.818 Y167.614 E20.10499
G1 X128.351 Y168.094 E20.15633
G1 X127.099 Y168.478 E20.19988
G1 X124.931 Y169.066 E20.2746
G1 X123.824 Y169.336 E20.3125
G1 X121.561 Y169.815 E20.38943
G1 X120.413 Y170.029 E20.42827
G1 X118.383 Y170.345 E20.4966
G1 X117.308 Y170.485 E20.53266
G1 X115.011 Y170.716 E20.60944
G1 X114.032 Y170.792 E20.6421
G1 X113.146 Y170.84 E20.67161
G1 X111.602 Y170.901 E20.72301
G1 X110.454 Y170.923 E20.7612
G1 X108.36 Y170.901 E20.83085
G1 X107.212 Y170.861 E20.86905
G1 X104.964 Y170.713 E20.94398
G1 X103.999 Y170.63 E20.9762
G1 X103.119 Y170.531 E21.00565
G1 X101.557 Y170.335 E21.05801
G1 X100.591 Y170.195 E21.09048
G1 X99.696 Y170.043 E21.12067
G1 X98.129 Y169.754 E21.17367
G1 X96.987 Y169.52 E21.21244
G1 X95.055 Y169.064 E21.27847
G1 X93.98 Y168.784 E21.31541
G1 X91.762 Y168.131 E21.39231
G1 X90.722 Y167.799 E21.42862
G1 X88.917 Y167.16 E21.49231
G1 X87.766 Y166.729 E21.53319
G1 X86.074 Y166.041 E21.59394
G1 X85.194 Y165.652 E21.62594
G1 X83.757 Y164.978 E21.67873
G1 X82.395 Y164.312 E21.72916
G1 X81.57 Y163.89 E21.75998
G1 X80.777 Y163.458 E21.79001
G1 X79.093 Y162.507 E21.85434
G1 X78.743 Y162.3 E21.86786
G1 X77.012 Y161.227 E21.9356
G1 X76.013 Y160.568 E21.9754
G1 X75.135 Y159.958 E22.01096
G1 X73.841 Y159.033 E22.06387
G1 X72.923 Y158.348 E22.10196
G1 X71.334 Y157.085 E22.16947
G1 X70.543 Y156.423 E22.20378
G1 X68.69 Y154.778 E22.28619
G1 X68.185 Y154.314 E22.309
G1 X67.488 Y153.642 E22.34121
G1 X66.439 Y152.592 E22.39057
G1 X65.651 Y151.773 E22.42837
G1 X64.052 Y150.004 E22.50768
G1 X63.34 Y149.177 E22.54398
G1 X62.105 Y147.649 E22.60933
G1 X61.078 Y146.31 E22.66545
G1 X59.932 Y144.712 E22.73086
G1 X59.288 Y143.77 E22.76881
G1 X58.22 Y142.094 E22.83491
G1 X57.085 Y140.205 E22.90821
G1 X56.584 Y139.31 E22.94232
G1 X55.936 Y138.097 E22.98806
G1 X54.916 Y136.028 E23.06478
G1 X54.463 Y135.051 E23.1006
G1 X53.606 Y133.044 E23.17319
G1 X52.931 Y131.357 E23.23362
G1 X52.599 Y130.449 E23.26578
G1 X52.201 Y129.288 E23.3066
G1 X51.705 Y127.708 E23.36168
G1 X51.394 Y126.663 E23.39794
G1 X51.094 Y125.568 E23.4357
G1 X50.566 Y123.393 E23.51015
G1 X50.352 Y122.427 E23.54305
G1 X50.217 Y121.741 E23.56631
G1 X49.908 Y120.035 E23.62397
G1 X49.734 Y118.945 E23.66068
G1 X49.443 Y116.676 E23.73677
G1 X49.331 Y115.584 E23.77328
G1 X49.167 Y113.289 E23.84981
G1 X49.128 Y112.56 E23.87409
G1 X49.097 Y111.456 E23.91082
G1 X49.079 Y109.928 E23.96165
G1 X49.084 Y108.897 E23.99594
G1 X49.104 Y108.212 E24.01873
G1 X49.179 Y106.52 E24.07506
